Sweet-Rainbow/icons/calibre-ebook-edit.svg

<?xml version="1.0" encoding="UTF-8" standalone="no"?>
<!-- Generator: Gravit.io -->

<svg
   xmlns:dc="http://purl.org/dc/elements/1.1/"
   xmlns:cc="http://creativecommons.org/ns#"
   xmlns:rdf="http://www.w3.org/1999/02/22-rdf-syntax-ns#"
   xmlns:svg="http://www.w3.org/2000/svg"
   xmlns="http://www.w3.org/2000/svg"
   xmlns:sodipodi="http://sodipodi.sourceforge.net/DTD/sodipodi-0.dtd"
   xmlns:inkscape="http://www.inkscape.org/namespaces/inkscape"
   style="isolation:isolate"
   viewBox="0 0 36 36"
   width="48"
   height="48"
   version="1.1"
   id="svg21"
   sodipodi:docname="calibre-ebook-edit.svg"
   inkscape:version="0.92.4 (5da689c313, 2019-01-14)">
  <metadata
     id="metadata27">
    <rdf:RDF>
      <cc:Work
         rdf:about="">
        <dc:format>image/svg+xml</dc:format>
        <dc:type
           rdf:resource="http://purl.org/dc/dcmitype/StillImage" />
        <dc:title></dc:title>
      </cc:Work>
    </rdf:RDF>
  </metadata>
  <defs
     id="defs25" />
  <sodipodi:namedview
     pagecolor="#ffffff"
     bordercolor="#666666"
     borderopacity="1"
     objecttolerance="10"
     gridtolerance="10"
     guidetolerance="10"
     inkscape:pageopacity="0"
     inkscape:pageshadow="2"
     inkscape:window-width="640"
     inkscape:window-height="480"
     id="namedview23"
     showgrid="false"
     inkscape:zoom="29.365243"
     inkscape:cx="25.325443"
     inkscape:cy="32"
     inkscape:current-layer="svg21"
     units="px" />
  <linearGradient
     id="_lgradient_47"
     x1="0.06818182"
     y1="0.23295455"
     x2="0.93843019"
     y2="0.77938956"
     gradientTransform="matrix(38,0,0,46,2.752,1)"
     gradientUnits="userSpaceOnUse">
    <stop
       offset="1.3043478260869565%"
       stop-opacity="1"
       style="stop-color:rgb(55,236,186)"
       id="stop2" />
    <stop
       offset="97.82608695652173%"
       stop-opacity="1"
       style="stop-color:rgb(114,175,211)"
       id="stop4" />
  </linearGradient>
  <linearGradient
     id="_lgradient_48"
     x1="0.040624999"
     y1="0.054347824"
     x2="0.96835077"
     y2="0.97395134"
     gradientTransform="matrix(20,0,0,20,25.248,25)"
     gradientUnits="userSpaceOnUse">
    <stop
       offset="0%"
       stop-opacity="1"
       style="stop-color:rgb(240,107,169)"
       id="stop9" />
    <stop
       offset="98.69565217391305%"
       stop-opacity="1"
       style="stop-color:rgb(66,216,246)"
       id="stop11" />
  </linearGradient>
  <linearGradient
     id="_lgradient_49"
     x1="25.601788"
     y1="25.641047"
     x2="45.083832"
     y2="44.952526"
     gradientTransform="scale(0.99998993,1.0000101)"
     gradientUnits="userSpaceOnUse">
    <stop
       offset="0%"
       stop-opacity="1"
       style="stop-color:rgb(240,107,169)"
       id="stop14" />
    <stop
       offset="98.69565217391305%"
       stop-opacity="1"
       style="stop-color:rgb(66,216,246)"
       id="stop16" />
  </linearGradient>
  <g
     id="g839"
     transform="matrix(0.7826087,0,0,0.7826087,-0.97826098,-0.7826088)">
    <path
       id="path7"
       d="m 11.252,35 h -3.5 c -0.343,0 -0.677,0.034 -1,0.1 V 8 c 0,-1.656 1.344,-3 3,-3 h 1.5 v 0 17.62 c 0,1.656 0.95,2.049 2.121,0.879 l 3.379,-3.379 3.378,3.379 c 1.171,1.17 2.122,0.777 2.122,-0.879 V 5 h 11.5 c 1.655,0 3,1.344 3,3 v 12 0 c 0,1.104 0.896,2 2,2 v 0 c 1.103,0 2,-0.896 2,-2 V 20 6 c 0,-2.76 -2.241,-5 -5,-5 h -28 c -2.76,0 -5,2.24 -5,5 v 33 1 1 1 c 0,2.76 2.24,5 5,5 h 16 v 0 c 1.103,0 2,-0.896 2,-2 v 0 c 0,-1.104 -0.897,-2 -2,-2 v 0 h -15 c -1.104,0 -2,-0.896 -2,-2 v 0 0 c 0,-1.104 0.896,-2 2,-2 h 11 c 1.103,0 2,-0.896 2,-2 v 0 c 0,-1.104 -0.897,-2 -2,-2 h -5.5 v -5 0 c 0,-0.828 -0.672,-1.5 -1.5,-1.5 v 0 c -0.828,0 -1.5,0.672 -1.5,1.5 v 0 z m 3,-30 h 5 v 13.38 l -1.793,-1.793 c -0.391,-0.39 -1.024,-0.39 -1.414,0 l -1.793,1.793 z"
       style="fill:url(#_lgradient_47);fill-rule:evenodd"
       inkscape:connector-curvature="0" />
    <path
       id="path19"
       stroke-miterlimit="3"
       d="m 27.067,34.391 v 0 c -0.038,0.499 -0.475,0.875 -0.976,0.839 v 0 c -0.501,-0.037 -0.878,-0.474 -0.84,-0.975 v 0 c 0.187,-2.514 1.32,-4.869 3.172,-6.587 C 30.275,25.955 32.71,25 35.236,25 c 2.653,0 5.202,1.055 7.081,2.927 1.876,1.878 2.931,4.423 2.931,7.073 0,2.65 -1.055,5.195 -2.931,7.073 C 40.438,43.945 37.889,45 35.236,45 v 0 c -0.502,0 -0.91,-0.407 -0.91,-0.909 v 0 c 0,-0.502 0.408,-0.909 0.91,-0.909 v 0 c 2.171,0 4.255,-0.864 5.794,-2.396 1.533,-1.536 2.398,-3.618 2.398,-5.786 0,-2.168 -0.865,-4.25 -2.398,-5.786 -1.539,-1.532 -3.623,-2.396 -5.794,-2.396 -2.066,0 -4.06,0.777 -5.575,2.182 -1.516,1.405 -2.439,3.332 -2.594,5.391 z m 4.36,7.854 v 0 c 0.444,0.234 0.616,0.784 0.382,1.228 v 0 c -0.234,0.444 -0.784,0.615 -1.229,0.382 v 0 c -1.893,-0.996 -3.422,-2.573 -4.355,-4.496 v 0 c -0.221,-0.451 -0.034,-0.996 0.419,-1.216 v 0 c 0.452,-0.219 0.998,-0.031 1.219,0.421 v 0 c 0.765,1.577 2.012,2.863 3.564,3.681 z m 8.428,-6.789 c 0,0.028 -0.02,0.052 -0.048,0.057 l -0.91,0.151 c -0.115,0.02 -0.206,0.104 -0.234,0.215 -0.083,0.318 -0.208,0.624 -0.377,0.908 -0.059,0.1 -0.055,0.223 0.013,0.318 l 0.535,0.755 c 0.015,0.021 0.013,0.054 -0.007,0.073 l -0.645,0.646 c -0.016,0.015 -0.031,0.017 -0.042,0.017 -0.013,0 -0.023,-0.004 -0.032,-0.01 L 37.356,38.05 c -0.093,-0.067 -0.219,-0.071 -0.319,-0.013 -0.284,0.169 -0.589,0.295 -0.908,0.377 -0.112,0.029 -0.197,0.122 -0.214,0.234 l -0.154,0.911 c -0.004,0.028 -0.028,0.047 -0.056,0.047 h -0.913 c -0.028,0 -0.052,-0.019 -0.056,-0.047 l -0.152,-0.911 c -0.019,-0.114 -0.104,-0.205 -0.214,-0.234 -0.31,-0.08 -0.609,-0.203 -0.889,-0.364 -0.046,-0.026 -0.098,-0.039 -0.147,-0.039 -0.059,0 -0.12,0.018 -0.169,0.054 l -0.759,0.54 c -0.011,0.007 -0.022,0.011 -0.032,0.011 -0.009,0 -0.026,-0.002 -0.042,-0.017 l -0.645,-0.646 c -0.02,-0.02 -0.022,-0.05 -0.007,-0.074 l 0.533,-0.748 C 32.28,37.036 32.285,36.91 32.226,36.811 32.057,36.529 31.927,36.223 31.845,35.905 31.814,35.794 31.723,35.71 31.611,35.69 L 30.694,35.534 C 30.666,35.53 30.646,35.506 30.646,35.478 v -0.913 c 0,-0.028 0.02,-0.052 0.048,-0.056 l 0.904,-0.152 c 0.115,-0.019 0.208,-0.104 0.236,-0.216 0.08,-0.319 0.204,-0.627 0.371,-0.911 0.058,-0.099 0.052,-0.223 -0.016,-0.316 L 31.65,32.156 c -0.015,-0.022 -0.013,-0.055 0.006,-0.074 l 0.646,-0.646 c 0.015,-0.015 0.03,-0.017 0.041,-0.017 0.013,0 0.024,0.004 0.033,0.011 l 0.747,0.533 c 0.096,0.067 0.221,0.071 0.321,0.013 0.282,-0.169 0.587,-0.299 0.906,-0.382 0.111,-0.03 0.195,-0.121 0.215,-0.234 l 0.156,-0.917 c 0.004,-0.028 0.028,-0.047 0.056,-0.047 h 0.912 c 0.029,0 0.052,0.019 0.057,0.047 l 0.151,0.904 c 0.02,0.115 0.104,0.208 0.217,0.236 0.327,0.083 0.639,0.211 0.93,0.382 0.1,0.058 0.223,0.054 0.318,-0.013 l 0.748,-0.538 c 0.011,-0.006 0.022,-0.01 0.033,-0.01 0.008,0 0.026,0.002 0.041,0.017 l 0.646,0.646 c 0.019,0.019 0.021,0.05 0.006,0.073 l -0.535,0.752 c -0.067,0.094 -0.072,0.219 -0.013,0.319 0.169,0.284 0.295,0.589 0.377,0.908 0.028,0.113 0.121,0.197 0.234,0.215 l 0.91,0.153 c 0.028,0.005 0.048,0.029 0.048,0.057 v 0.912 z m 0.05,-1.545 -0.729,-0.124 c -0.075,-0.244 -0.173,-0.481 -0.292,-0.706 l 0.429,-0.6 c 0.182,-0.256 0.154,-0.605 -0.069,-0.826 l -0.646,-0.646 c -0.122,-0.121 -0.282,-0.188 -0.453,-0.188 -0.135,0 -0.262,0.041 -0.371,0.119 l -0.602,0.429 c -0.234,-0.124 -0.479,-0.226 -0.733,-0.301 l -0.121,-0.72 c -0.052,-0.31 -0.319,-0.535 -0.633,-0.535 h -0.912 c -0.315,0 -0.581,0.225 -0.633,0.535 l -0.126,0.737 c -0.243,0.076 -0.479,0.176 -0.704,0.297 l -0.596,-0.429 c -0.109,-0.078 -0.239,-0.119 -0.373,-0.119 -0.171,0 -0.334,0.067 -0.453,0.188 l -0.648,0.646 c -0.221,0.221 -0.251,0.57 -0.069,0.826 l 0.433,0.609 c -0.119,0.227 -0.214,0.463 -0.288,0.708 l -0.72,0.122 c -0.309,0.052 -0.535,0.318 -0.535,0.632 v 0.913 c 0,0.314 0.226,0.581 0.535,0.633 l 0.737,0.125 c 0.076,0.243 0.176,0.479 0.297,0.705 l -0.427,0.594 c -0.182,0.255 -0.154,0.604 0.07,0.825 l 0.645,0.646 c 0.122,0.121 0.282,0.189 0.453,0.189 0.135,0 0.263,-0.042 0.371,-0.12 l 0.609,-0.433 c 0.219,0.115 0.449,0.208 0.685,0.282 l 0.121,0.728 c 0.052,0.31 0.319,0.535 0.633,0.535 h 0.915 c 0.314,0 0.58,-0.225 0.632,-0.535 l 0.124,-0.728 c 0.245,-0.076 0.481,-0.174 0.706,-0.293 l 0.601,0.429 c 0.108,0.078 0.238,0.119 0.372,0.119 v 0 c 0.172,0 0.332,-0.067 0.453,-0.188 l 0.646,-0.646 c 0.221,-0.221 0.252,-0.57 0.07,-0.826 l -0.43,-0.602 c 0.12,-0.228 0.219,-0.464 0.293,-0.707 L 39.9,36.089 c 0.31,-0.052 0.535,-0.319 0.535,-0.633 v -0.912 c 0.005,-0.314 -0.221,-0.581 -0.53,-0.633 z m -4.656,2.741 c -0.912,0 -1.653,-0.741 -1.653,-1.653 0,-0.912 0.741,-1.654 1.653,-1.654 0.913,0 1.654,0.742 1.654,1.654 0,0.912 -0.741,1.653 -1.654,1.653 z m 0,-3.892 c -1.235,0 -2.238,1.004 -2.238,2.239 0,1.235 1.003,2.239 2.238,2.239 1.236,0 2.239,-1.004 2.239,-2.239 0,-1.235 -1.003,-2.239 -2.239,-2.239 z"
       style="vector-effect:non-scaling-stroke;fill:url(#_lgradient_48);fill-rule:evenodd;stroke:url(#_lgradient_49);stroke-width:1;stroke-linecap:square;stroke-linejoin:miter;stroke-miterlimit:3"
       inkscape:connector-curvature="0" />
  </g>
</svg>

<?xml version="1.0" encoding="UTF-8" standalone="no"?><!-- Generator: Gravit.io --><svg xmlns="http://www.w3.org/2000/svg" xmlns:xlink="http://www.w3.org/1999/xlink" style="isolation:isolate" viewBox="0 0 48 48" width="48pt" height="48pt"><linearGradient id="_lgradient_47" x1="0.0681818181817685" y1="0.23295454545454564" x2="0.9384302091713562" y2="0.779389581657281" gradientTransform="matrix(38,0,0,46,2.752,1)" gradientUnits="userSpaceOnUse"><stop offset="1.3043478260869565%" stop-opacity="1" style="stop-color:rgb(55,236,186)"/><stop offset="97.82608695652173%" stop-opacity="1" style="stop-color:rgb(114,175,211)"/></linearGradient><path d=" M 11.252 35 L 7.752 35 C 7.409 35 7.075 35.034 6.752 35.1 L 6.752 8 C 6.752 6.344 8.096 5 9.752 5 L 11.252 5 L 11.252 5 L 11.252 22.62 C 11.252 24.276 12.202 24.669 13.373 23.499 L 16.752 20.12 L 20.13 23.499 C 21.301 24.669 22.252 24.276 22.252 22.62 L 22.252 5 L 33.752 5 C 35.407 5 36.752 6.344 36.752 8 L 36.752 20 L 36.752 20 C 36.752 21.104 37.648 22 38.752 22 L 38.752 22 C 39.855 22 40.752 21.104 40.752 20 L 40.752 20 L 40.752 6 C 40.752 3.24 38.511 1 35.752 1 L 7.752 1 C 4.992 1 2.752 3.24 2.752 6 L 2.752 39 L 2.752 40 L 2.752 41 L 2.752 42 C 2.752 44.76 4.992 47 7.752 47 L 23.752 47 L 23.752 47 C 24.855 47 25.752 46.104 25.752 45 L 25.752 45 C 25.752 43.896 24.855 43 23.752 43 L 23.752 43 L 8.752 43 C 7.648 43 6.752 42.104 6.752 41 L 6.752 41 L 6.752 41 C 6.752 39.896 7.648 39 8.752 39 L 19.752 39 C 20.855 39 21.752 38.104 21.752 37 L 21.752 37 C 21.752 35.896 20.855 35 19.752 35 L 14.252 35 L 14.252 30 L 14.252 30 C 14.252 29.172 13.58 28.5 12.752 28.5 L 12.752 28.5 C 11.924 28.5 11.252 29.172 11.252 30 L 11.252 30 L 11.252 35 Z  M 14.252 5 L 19.252 5 L 19.252 18.38 L 17.459 16.587 C 17.068 16.197 16.435 16.197 16.045 16.587 L 14.252 18.38 L 14.252 5 L 14.252 5 Z " fill-rule="evenodd" fill="url(#_lgradient_47)"/><linearGradient id="_lgradient_48" x1="0.04062500000000003" y1="0.054347826086956486" x2="0.9683507709251103" y2="0.9739513503160315" gradientTransform="matrix(20,0,0,20,25.248,25)" gradientUnits="userSpaceOnUse"><stop offset="0%" stop-opacity="1" style="stop-color:rgb(240,107,169)"/><stop offset="98.69565217391305%" stop-opacity="1" style="stop-color:rgb(66,216,246)"/></linearGradient><linearGradient id="_lgradient_49" x1="0.04062500000000003" y1="0.054347826086956486" x2="0.9683507709251103" y2="0.9739513503160315"><stop offset="0%" stop-opacity="1" style="stop-color:rgb(240,107,169)"/><stop offset="98.69565217391305%" stop-opacity="1" style="stop-color:rgb(66,216,246)"/></linearGradient><path d=" M 27.067 34.391 L 27.067 34.391 C 27.029 34.89 26.592 35.266 26.091 35.23 L 26.091 35.23 C 25.59 35.193 25.213 34.756 25.251 34.255 L 25.251 34.255 C 25.438 31.741 26.571 29.386 28.423 27.668 C 30.275 25.955 32.71 25 35.236 25 C 37.889 25 40.438 26.055 42.317 27.927 C 44.193 29.805 45.248 32.35 45.248 35 C 45.248 37.65 44.193 40.195 42.317 42.073 C 40.438 43.945 37.889 45 35.236 45 L 35.236 45 C 34.734 45 34.326 44.593 34.326 44.091 L 34.326 44.091 C 34.326 43.589 34.734 43.182 35.236 43.182 L 35.236 43.182 C 37.407 43.182 39.491 42.318 41.03 40.786 C 42.563 39.25 43.428 37.168 43.428 35 C 43.428 32.832 42.563 30.75 41.03 29.214 C 39.491 27.682 37.407 26.818 35.236 26.818 C 33.17 26.818 31.176 27.595 29.661 29 C 28.145 30.405 27.222 32.332 27.067 34.391 L 27.067 34.391 L 27.067 34.391 Z  M 31.427 42.245 L 31.427 42.245 C 31.871 42.479 32.043 43.029 31.809 43.473 L 31.809 43.473 C 31.575 43.917 31.025 44.088 30.58 43.855 L 30.58 43.855 C 28.687 42.859 27.158 41.282 26.225 39.359 L 26.225 39.359 C 26.004 38.908 26.191 38.363 26.644 38.143 L 26.644 38.143 C 27.096 37.924 27.642 38.112 27.863 38.564 L 27.863 38.564 C 28.628 40.141 29.875 41.427 31.427 42.245 L 31.427 42.245 L 31.427 42.245 Z  M 39.855 35.456 C 39.855 35.484 39.835 35.508 39.807 35.513 L 38.897 35.664 C 38.782 35.684 38.691 35.768 38.663 35.879 C 38.58 36.197 38.455 36.503 38.286 36.787 C 38.227 36.887 38.231 37.01 38.299 37.105 L 38.834 37.86 C 38.849 37.881 38.847 37.914 38.827 37.933 L 38.182 38.579 C 38.166 38.594 38.151 38.596 38.14 38.596 C 38.127 38.596 38.117 38.592 38.108 38.586 L 37.356 38.05 C 37.263 37.983 37.137 37.979 37.037 38.037 C 36.753 38.206 36.448 38.332 36.129 38.414 C 36.017 38.443 35.932 38.536 35.915 38.648 L 35.761 39.559 C 35.757 39.587 35.733 39.606 35.705 39.606 L 34.792 39.606 C 34.764 39.606 34.74 39.587 34.736 39.559 L 34.584 38.648 C 34.565 38.534 34.48 38.443 34.37 38.414 C 34.06 38.334 33.761 38.211 33.481 38.05 C 33.435 38.024 33.383 38.011 33.334 38.011 C 33.275 38.011 33.214 38.029 33.165 38.065 L 32.406 38.605 C 32.395 38.612 32.384 38.616 32.374 38.616 C 32.365 38.616 32.348 38.614 32.332 38.599 L 31.687 37.953 C 31.667 37.933 31.665 37.903 31.68 37.879 L 32.213 37.131 C 32.28 37.036 32.285 36.91 32.226 36.811 C 32.057 36.529 31.927 36.223 31.845 35.905 C 31.814 35.794 31.723 35.71 31.611 35.69 L 30.694 35.534 C 30.666 35.53 30.646 35.506 30.646 35.478 L 30.646 34.565 C 30.646 34.537 30.666 34.513 30.694 34.509 L 31.598 34.357 C 31.713 34.338 31.806 34.253 31.834 34.141 C 31.914 33.822 32.038 33.514 32.205 33.23 C 32.263 33.131 32.257 33.007 32.189 32.914 L 31.65 32.156 C 31.635 32.134 31.637 32.101 31.656 32.082 L 32.302 31.436 C 32.317 31.421 32.332 31.419 32.343 31.419 C 32.356 31.419 32.367 31.423 32.376 31.43 L 33.123 31.963 C 33.219 32.03 33.344 32.034 33.444 31.976 C 33.726 31.807 34.031 31.677 34.35 31.594 C 34.461 31.564 34.545 31.473 34.565 31.36 L 34.721 30.443 C 34.725 30.415 34.749 30.396 34.777 30.396 L 35.689 30.396 C 35.718 30.396 35.741 30.415 35.746 30.443 L 35.897 31.347 C 35.917 31.462 36.001 31.555 36.114 31.583 C 36.441 31.666 36.753 31.794 37.044 31.965 C 37.144 32.023 37.267 32.019 37.362 31.952 L 38.11 31.414 C 38.121 31.408 38.132 31.404 38.143 31.404 C 38.151 31.404 38.169 31.406 38.184 31.421 L 38.83 32.067 C 38.849 32.086 38.851 32.117 38.836 32.14 L 38.301 32.892 C 38.234 32.986 38.229 33.111 38.288 33.211 C 38.457 33.495 38.583 33.8 38.665 34.119 C 38.693 34.232 38.786 34.316 38.899 34.334 L 39.809 34.487 C 39.837 34.492 39.857 34.516 39.857 34.544 L 39.857 35.456 L 39.855 35.456 L 39.855 35.456 L 39.855 35.456 Z  M 39.905 33.911 L 39.176 33.787 C 39.101 33.543 39.003 33.306 38.884 33.081 L 39.313 32.481 C 39.495 32.225 39.467 31.876 39.244 31.655 L 38.598 31.009 C 38.476 30.888 38.316 30.821 38.145 30.821 C 38.01 30.821 37.883 30.862 37.774 30.94 L 37.172 31.369 C 36.938 31.245 36.693 31.143 36.439 31.068 L 36.318 30.348 C 36.266 30.038 35.999 29.813 35.685 29.813 L 34.773 29.813 C 34.458 29.813 34.192 30.038 34.14 30.348 L 34.014 31.085 C 33.771 31.161 33.535 31.261 33.31 31.382 L 32.714 30.953 C 32.605 30.875 32.475 30.834 32.341 30.834 C 32.17 30.834 32.007 30.901 31.888 31.022 L 31.24 31.668 C 31.019 31.889 30.989 32.238 31.171 32.494 L 31.604 33.103 C 31.485 33.33 31.39 33.566 31.316 33.811 L 30.596 33.933 C 30.287 33.985 30.061 34.251 30.061 34.565 L 30.061 35.478 C 30.061 35.792 30.287 36.059 30.596 36.111 L 31.333 36.236 C 31.409 36.479 31.509 36.715 31.63 36.941 L 31.203 37.535 C 31.021 37.79 31.049 38.139 31.273 38.36 L 31.918 39.006 C 32.04 39.127 32.2 39.195 32.371 39.195 C 32.506 39.195 32.634 39.153 32.742 39.075 L 33.351 38.642 C 33.57 38.757 33.8 38.85 34.036 38.924 L 34.157 39.652 C 34.209 39.962 34.476 40.187 34.79 40.187 L 35.705 40.187 C 36.019 40.187 36.285 39.962 36.337 39.652 L 36.461 38.924 C 36.706 38.848 36.942 38.75 37.167 38.631 L 37.768 39.06 C 37.876 39.138 38.006 39.179 38.14 39.179 L 38.14 39.179 C 38.312 39.179 38.472 39.112 38.593 38.991 L 39.239 38.345 C 39.46 38.124 39.491 37.775 39.309 37.519 L 38.879 36.917 C 38.999 36.689 39.098 36.453 39.172 36.21 L 39.9 36.089 C 40.21 36.037 40.435 35.77 40.435 35.456 L 40.435 34.544 C 40.44 34.23 40.214 33.963 39.905 33.911 L 39.905 33.911 L 39.905 33.911 L 39.905 33.911 Z  M 35.249 36.652 C 34.337 36.652 33.596 35.911 33.596 34.999 C 33.596 34.087 34.337 33.345 35.249 33.345 C 36.162 33.345 36.903 34.087 36.903 34.999 C 36.903 35.911 36.162 36.652 35.249 36.652 L 35.249 36.652 L 35.249 36.652 Z  M 35.249 32.76 C 34.014 32.76 33.011 33.764 33.011 34.999 C 33.011 36.234 34.014 37.238 35.249 37.238 C 36.485 37.238 37.488 36.234 37.488 34.999 C 37.488 33.764 36.485 32.76 35.249 32.76 L 35.249 32.76 L 35.249 32.76 Z " fill-rule="evenodd" fill="url(#_lgradient_48)" vector-effect="non-scaling-stroke" stroke-width="1" stroke="url(#_lgradient_49)" stroke-linejoin="miter" stroke-linecap="square" stroke-miterlimit="3"/></svg>
